X: 08088
T: PAM SWEET'S HORNPIPE
C: Bob McQuillen 4 Dec 91
B: Bob's Note Book 8 #88
%R: hornpipe, reel
Z: 2021 John Chambers <jc:trillian.mit.edu>
M: C
L: 1/8
K: G
BA \
| G2GD EGDE | G2FG AGAc | B2dB cBAc | BdBG A2BA |\
| G2GD EGDE | GABc d2ed | cBAG FAdc | B2G2 G2 :|
|: GA \
| B2BG cedc | B2BG AGED | G2GA BGBd | egdB A2GA |\
| B2BG cedc | BdBG AGED | GBdB cAFG | A2F2 F2 :|
%%begintext align
%% Pam was
%% one of my neat school girls a few years back.
%% She was from Francestown, NH, then, but now
%% she's living in East Aurora, NY (you know where
%% _that_ is) and it's always special when I run into
%% her at a dance somewhere. Much love to you, Penny!
%%endtext

%%sep 1 1 500

%%sep 1 1 500

